dist/images/tiny-glow.svg

<svg width="24" height="24" viewBox="0 0 24 24" fill="none" xmlns="http://www.w3.org/2000/svg">
<path fill-rule="evenodd" clip-rule="evenodd" d="M11.2338 0L11.1967 0.00239492C10.8549 6.11764 6.06063 11.044 0.00279452 11.5924C0.00172313 11.6262 0.000791431 11.6601 0 11.6939C6.23982 12.2574 11.1397 17.4657 11.2153 23.8344C11.2954 17.0878 16.7893 11.6434 23.5549 11.6434C23.7039 11.6434 23.8523 11.646 24 11.6513C23.9999 11.646 23.9997 11.6407 23.9996 11.6353C23.852 11.6406 23.7037 11.6432 23.5549 11.6432C16.9734 11.6432 11.5953 6.49106 11.2338 0Z" fill="#FAF8EF"/>
</svg>

<svg width="24" height="24" viewBox="0 0 24 24" fill="none" xmlns="http://www.w3.org/2000/svg"><path fill-rule="evenodd" clip-rule="evenodd" d="M11.234 0l-.037.002C10.855 6.118 6.06 11.044.003 11.592a12.28 12.28 0 00-.003.102c6.24.563 11.14 5.772 11.215 12.14.08-6.746 5.574-12.19 12.34-12.19.149 0 .297.002.445.007v-.016c-.148.006-.296.008-.445.008-6.582 0-11.96-5.152-12.321-11.643z" fill="#FAF8EF"/></svg>
